X:11
T:Big Bow Wow. WCF.011
M:6/8
L:1/8
Q:3/8=110
S:Wm Clarke MS, Feltwell, 1858
O:England
A:Norfolk
N:Repeat to sign? Last note Bar 12 too short in MS (dotted Quaver)
N:changed to dotted crotchet here.
Z:transcription by Lyn Law 04/2006
K:G
c|B2c d2=f|e2e d2c|B2c d2=f|e2e d2c|!
B2c d2d|def g2e|dcB cBA|G2G G2||!
G GAB|c2c c3|c2G GAB|A2A “NB”A3|!
B2G GAB|c2c c2e|dcB cBA|G2G G2|]

